X: 26
T:Y Dywysoges Frenhinol
T:Princess Royal
M:C
L:1/8
Q:150
C:Trad
A:Wales
Z:brian_martin12345@yahoo.com
K:Gm
GA|B2A2G2dc|B2A2G4|e2d2c2c2|dcBAB2Bc|
d2c2B2A2|GBA^FD2 dc|B2AGA2d^F G4{^F}G2:||
d2|d2g2g2g2|f2d2B3c|d2f2f2d2|c2A2F3F|B2B2c2c2|d2d2g3g|
f2d2e3e|d2G2c2Bc|d2c2B2A2|GBA^FD2dc|B2AGA2^F2|G4{^F}G2:||
